papirus/48x48/apps/puddletag.svg

<?xml version="1.0" encoding="UTF-8" standalone="no"?>
<!-- Created with Inkscape (http://www.inkscape.org/) -->

<svg
   xmlns:dc="http://purl.org/dc/elements/1.1/"
   xmlns:cc="http://creativecommons.org/ns#"
   xmlns:rdf="http://www.w3.org/1999/02/22-rdf-syntax-ns#"
   xmlns:svg="http://www.w3.org/2000/svg"
   xmlns="http://www.w3.org/2000/svg"
   xmlns:xlink="http://www.w3.org/1999/xlink"
   xmlns:sodipodi="http://sodipodi.sourceforge.net/DTD/sodipodi-0.dtd"
   xmlns:inkscape="http://www.inkscape.org/namespaces/inkscape"
   id="svg2817"
   height="48"
   width="48"
   version="1.0"
   inkscape:version="0.91 r"
   sodipodi:docname="puddletag.svg">
  <metadata
     id="metadata57">
    <rdf:RDF>
      <cc:Work
         rdf:about="">
        <dc:format>image/svg+xml</dc:format>
        <dc:type
           rdf:resource="http://purl.org/dc/dcmitype/StillImage" />
        <dc:title />
      </cc:Work>
    </rdf:RDF>
  </metadata>
  <sodipodi:namedview
     pagecolor="#ffffff"
     bordercolor="#666666"
     borderopacity="1"
     objecttolerance="10"
     gridtolerance="10"
     guidetolerance="10"
     inkscape:pageopacity="0"
     inkscape:pageshadow="2"
     inkscape:window-width="1600"
     inkscape:window-height="840"
     id="namedview55"
     showgrid="false"
     inkscape:zoom="10.66"
     inkscape:cx="16.39845"
     inkscape:cy="23.287137"
     inkscape:window-x="-4"
     inkscape:window-y="34"
     inkscape:window-maximized="1"
     inkscape:current-layer="svg2817" />
  <defs
     id="defs2819">
    <linearGradient
       id="linearGradient2815"
       y2="17.5"
       spreadMethod="reflect"
       gradientUnits="userSpaceOnUse"
       x2="3.0052"
       y1="17.5"
       x1="44.995">
      <stop
         id="stop3277"
         style="stop-color:#fff;stop-opacity:0"
         offset="0" />
      <stop
         id="stop3283"
         style="stop-color:#fff"
         offset=".245" />
      <stop
         id="stop3285"
         style="stop-color:#fff"
         offset=".77350" />
      <stop
         id="stop3279"
         style="stop-color:#fff;stop-opacity:0"
         offset="1" />
    </linearGradient>
    <linearGradient
       id="linearGradient2813"
       y2="8"
       gradientUnits="userSpaceOnUse"
       x2="26"
       y1="22"
       x1="26">
      <stop
         id="stop3829"
         style="stop-color:#fff"
         offset="0" />
      <stop
         id="stop4295"
         style="stop-color:#fff"
         offset=".30213" />
      <stop
         id="stop4293"
         style="stop-color:#fff;stop-opacity:.69020"
         offset=".34361" />
      <stop
         id="stop3832"
         style="stop-color:#fff;stop-opacity:0"
         offset="1" />
    </linearGradient>
    <linearGradient
       id="linearGradient2811"
       y2="45.934"
       gradientUnits="userSpaceOnUse"
       x2="43.007"
       gradientTransform="matrix(1.2822 0 0 1.1747 -6.0702 -5.3032)"
       y1="30.555"
       x1="23.452">
      <stop
         id="stop4561"
         style="stop-color:#fff;stop-opacity:0"
         offset="0" />
      <stop
         id="stop4563"
         style="stop-color:#fff;stop-opacity:0"
         offset="1" />
    </linearGradient>
    <linearGradient
       id="linearGradient2809"
       y2="45.042"
       gradientUnits="userSpaceOnUse"
       x2="15.464"
       y1="7.9757"
       x1="15.464">
      <stop
         id="stop3297"
         style="stop-color:#c9af8b"
         offset="0" />
      <stop
         id="stop3299"
         style="stop-color:#ad8757"
         offset=".23942" />
      <stop
         id="stop3301"
         style="stop-color:#c2a57f"
         offset=".27582" />
      <stop
         id="stop3303"
         style="stop-color:#9d7d53"
         offset="1" />
    </linearGradient>
    <linearGradient
       id="linearGradient2807"
       y2="37.277"
       gradientUnits="userSpaceOnUse"
       x2="24.997"
       gradientTransform="matrix(1.2822 0 0 1.5573 -6.0702 -15.291)"
       y1="15.378"
       x1="24.823">
      <stop
         id="stop3201"
         style="stop-color:#dac197"
         offset="0" />
      <stop
         id="stop3203"
         style="stop-color:#c1a581"
         offset=".23942" />
      <stop
         id="stop3205"
         style="stop-color:#dbc298"
         offset=".27582" />
      <stop
         id="stop3207"
         style="stop-color:#a68b60"
         offset="1" />
    </linearGradient>
    <radialGradient
       id="radialGradient2805"
       xlink:href="#linearGradient3681"
       gradientUnits="userSpaceOnUse"
       cy="41.5"
       cx="5"
       gradientTransform="matrix(.59382 0 0 1.5367 41.141 -103.94)"
       r="5" />
    <linearGradient
       id="linearGradient2803"
       y2="35"
       gradientUnits="userSpaceOnUse"
       x2="17.554"
       gradientTransform="matrix(1.757 0 0 1.397 -17.394 -16.412)"
       y1="46"
       x1="17.554">
      <stop
         id="stop3705"
         style="stop-opacity:0"
         offset="0" />
      <stop
         id="stop3711"
         offset=".5" />
      <stop
         id="stop3707"
         style="stop-opacity:0"
         offset="1" />
    </linearGradient>
    <linearGradient
       id="linearGradient3681">
      <stop
         id="stop3683"
         offset="0" />
      <stop
         id="stop3685"
         style="stop-opacity:0"
         offset="1" />
    </linearGradient>
    <radialGradient
       id="radialGradient2801"
       xlink:href="#linearGradient3681"
       gradientUnits="userSpaceOnUse"
       cy="41.5"
       cx="5"
       gradientTransform="matrix(.59382 0 0 1.5367 -6.6595 -103.94)"
       r="5" />
    <linearGradient
       id="linearGradient2789"
       y2="25.411"
       gradientUnits="userSpaceOnUse"
       x2="57.726"
       gradientTransform="matrix(0 .71282 -.67402 0 50.746 15.046)"
       y1="25.411"
       x1="13.472">
      <stop
         id="stop4224"
         style="stop-color:#fff"
         offset="0" />
      <stop
         id="stop4226"
         style="stop-color:#fff;stop-opacity:0"
         offset="1" />
    </linearGradient>
    <linearGradient
       id="linearGradient2787"
       y2="20.71"
       gradientUnits="userSpaceOnUse"
       x2=".81572"
       gradientTransform="matrix(0 -.61460 -.58384 0 46.949 46.633)"
       y1="20.71"
       x1="28.315">
      <stop
         id="stop2266"
         style="stop-color:#d7e866"
         offset="0" />
      <stop
         id="stop2268"
         style="stop-color:#8cab2a"
         offset="1" />
    </linearGradient>
    <clipPath
       clipPathUnits="userSpaceOnUse"
       id="clipPath4286">
      <path
         style="display:inline;fill:#d8d8d8;fill-opacity:1;stroke:none;enable-background:new"
         d="m 160,242.75 c -5.69545,0 -10.54546,3.48678 -12.63282,8.42188 C 142.06566,251.96003 138,256.47916 138,262 c 0,6.07514 4.92486,11 11,11 l 23.375,0 c 5.31575,0 9.625,-4.30925 9.625,-9.625 0,-4.94048 -3.71468,-8.98892 -8.50782,-9.53907 C 172.24212,247.52912 166.6739,242.75 160,242.75 Z"
         id="path4288"
         inkscape:connector-curvature="0" />
    </clipPath>
    <linearGradient
       id="linearGradient3901">
      <stop
         style="stop-color:#0685e7;stop-opacity:1;"
         offset="0"
         id="stop3903" />
      <stop
         style="stop-color:#4eaef9;stop-opacity:1"
         offset="1"
         id="stop3905" />
    </linearGradient>
    <linearGradient
       id="outerBackgroundGradient-0">
      <stop
         style="stop-color:#212121;stop-opacity:1;"
         offset="0"
         id="stop3864-8-6-7" />
      <stop
         style="stop-color:#313131;stop-opacity:1;"
         offset="1"
         id="stop3866-9-1-95" />
    </linearGradient>
  </defs>
  <g
     id="g4227"
     style="font-style:normal;font-variant:normal;font-weight:normal;font-stretch:normal;font-size:29.80191803px;line-height:125%;font-family:'Droid Naskh Shift Alt';-inkscape-font-specification:'Droid Naskh Shift Alt';letter-spacing:0px;word-spacing:0px;fill:#ffffff;fill-opacity:1;stroke:none;stroke-width:1px;stroke-linecap:butt;stroke-linejoin:miter;stroke-opacity:1"
     transform="matrix(0.99414699,0,0,1.0058875,12.585072,-0.41623521)" />
  <g
     id="g4237"
     transform="translate(7,-2)" />
  <g
     id="g4194">
    <path
       id="path3237"
       d="M 2.0234375 28.568359 C 2.0150962 28.742561 2 28.915443 2 29.091797 C 2 35.116729 6.9248598 40 13 40 L 36.375 40 C 41.69075 40 46 35.726896 46 30.455078 C 46 30.281892 45.985728 30.112268 45.976562 29.941406 C 45.719293 34.985426 41.524982 39 36.375 39 L 13 39 C 7.0870986 39 2.2768331 34.370493 2.0234375 28.568359 z "
       style="display:inline;opacity:0.3;fill:#000000;fill-opacity:1;stroke:none;enable-background:new" />
    <path
       style="display:inline;fill:#d8d8d8;fill-opacity:1;stroke:none;enable-background:new"
       d="M 24,9 C 18.30455,9 13.45454,12.457964 11.36718,17.352278 6.0656598,18.133914 1.9999998,22.615696 1.9999998,28.090909 1.9999998,34.115841 6.9248598,39 13,39 l 23.375,0 C 41.69075,39 46,34.726364 46,29.454546 46,24.554896 42.28532,20.539914 37.49218,19.994311 36.24212,13.739623 30.6739,9 24,9 Z"
       id="path5884"
       inkscape:connector-curvature="0" />
    <g
       id="g4249"
       style="opacity:0.2;fill:#ffffff;fill-opacity:1"
       transform="translate(30,-2)">
      <path
         style="opacity:1;fill:#ffffff;fill-opacity:1;fill-rule:nonzero;stroke:none;stroke-width:4;stroke-linecap:round;stroke-linejoin:round;stroke-miterlimit:4;stroke-dasharray:none;stroke-dashoffset:0;stroke-opacity:1"
         d="m -1,21 -9,2 0,2 0,5.175781 A 3,3 0 0 0 -11,30 a 3,3 0 0 0 -3,3 3,3 0 0 0 3,3 3,3 0 0 0 3,-3 l 0,-8.443359 5,-1.111329 0,4.730469 A 3,3 0 0 0 -4,28 a 3,3 0 0 0 -3,3 3,3 0 0 0 3,3 3,3 0 0 0 3,-3 l 0,-8 0,-2 z"
         id="path4251"
         inkscape:connector-curvature="0" />
    </g>
    <g
       transform="translate(30,-3)"
       style="fill:#dd5789;fill-opacity:1"
       id="g4233">
      <path
         inkscape:connector-curvature="0"
         id="path4228"
         d="m -1,21 -9,2 0,2 0,5.175781 A 3,3 0 0 0 -11,30 a 3,3 0 0 0 -3,3 3,3 0 0 0 3,3 3,3 0 0 0 3,-3 l 0,-8.443359 5,-1.111329 0,4.730469 A 3,3 0 0 0 -4,28 a 3,3 0 0 0 -3,3 3,3 0 0 0 3,3 3,3 0 0 0 3,-3 l 0,-8 0,-2 z"
         style="opacity:1;fill:#dd5789;fill-opacity:1;fill-rule:nonzero;stroke:none;stroke-width:4;stroke-linecap:round;stroke-linejoin:round;stroke-miterlimit:4;stroke-dasharray:none;stroke-dashoffset:0;stroke-opacity:1" />
    </g>
    <path
       id="path4189"
       d="M 24 9 C 18.30455 9 13.454548 12.457249 11.367188 17.351562 C 6.0656673 18.133199 2 22.616584 2 28.091797 C 2 28.252695 2.0164848 28.40916 2.0234375 28.568359 C 2.2740661 23.334152 6.2364266 19.108022 11.367188 18.351562 C 13.454548 13.457249 18.30455 10 24 10 C 30.6739 10 36.242128 14.739453 37.492188 20.994141 C 42.115906 21.520458 45.726419 25.278387 45.976562 29.941406 C 45.984844 29.779048 46 29.619477 46 29.455078 C 46 24.555428 42.285327 20.539744 37.492188 19.994141 C 36.242128 13.739453 30.6739 9 24 9 z "
       style="display:inline;fill:#ffffff;fill-opacity:1;stroke:none;enable-background:new;opacity:0.2" />
  </g>
</svg>

<?xml version="1.0" encoding="UTF-8" standalone="no"?>
<!-- Created with Inkscape (http://www.inkscape.org/) -->
<svg id="svg2817" xmlns:rdf="http://www.w3.org/1999/02/22-rdf-syntax-ns#" xmlns="http://www.w3.org/2000/svg" height="48" width="48" version="1.0" xmlns:cc="http://creativecommons.org/ns#" xmlns:xlink="http://www.w3.org/1999/xlink" xmlns:dc="http://purl.org/dc/elements/1.1/">
 <metadata id="metadata57">
  <rdf:RDF>
   <cc:Work rdf:about="">
    <dc:format>image/svg+xml</dc:format>
    <dc:type rdf:resource="http://purl.org/dc/dcmitype/StillImage"/>
    <dc:title/>
   </cc:Work>
  </rdf:RDF>
 </metadata>
 <g id="g4194">
  <path id="path3237" opacity=".3" style="enable-background:new" d="m2.0234 28.568c-0.0083 0.175-0.0234 0.347-0.0234 0.524 0 6.025 4.9249 10.908 11 10.908h23.375c5.316 0 9.625-4.273 9.625-9.545 0-0.173-0.014-0.343-0.023-0.514-0.258 5.044-4.452 9.059-9.602 9.059h-23.375c-5.9129 0-10.723-4.63-10.977-10.432z"/>
  <path id="path5884" style="enable-background:new" d="m24 9c-5.695 0-10.545 3.458-12.633 8.352-5.3013 0.782-9.367 5.264-9.367 10.739 0 6.025 4.9249 10.909 11 10.909h23.375c5.316 0 9.625-4.274 9.625-9.545 0-4.9-3.715-8.915-8.508-9.461-1.25-6.254-6.818-10.994-13.492-10.994z" fill="#d8d8d8"/>
  <g id="g4249" opacity=".2" transform="translate(30,-2)" fill="#fff">
   <path id="path4251" opacity="1" d="m-1 21-9 2v2 5.1758a3 3 0 0 0 -1 -0.176 3 3 0 0 0 -3 3 3 3 0 0 0 3 3 3 3 0 0 0 3 -3v-8.4434l5-1.1113v4.7305a3 3 0 0 0 -1 -0.176 3 3 0 0 0 -3 3 3 3 0 0 0 3 3 3 3 0 0 0 3 -3v-8-2z" fill="#fff"/>
  </g>
  <g id="g4233" fill="#dd5789" transform="translate(30,-3)">
   <path id="path4228" d="m-1 21-9 2v2 5.1758a3 3 0 0 0 -1 -0.176 3 3 0 0 0 -3 3 3 3 0 0 0 3 3 3 3 0 0 0 3 -3v-8.4434l5-1.1113v4.7305a3 3 0 0 0 -1 -0.176 3 3 0 0 0 -3 3 3 3 0 0 0 3 3 3 3 0 0 0 3 -3v-8-2z" fill="#dd5789"/>
  </g>
  <path id="path4189" opacity=".2" style="enable-background:new" d="m24 9c-5.695 0-10.545 3.457-12.633 8.352-5.3013 0.781-9.367 5.265-9.367 10.74 0 0.161 0.0165 0.317 0.0234 0.476 0.2507-5.234 4.213-9.46 9.3436-10.216 2.088-4.895 6.938-8.352 12.633-8.352 6.674 0 12.242 4.739 13.492 10.994 4.624 0.526 8.234 4.284 8.485 8.947 0.008-0.162 0.023-0.322 0.023-0.486 0-4.9-3.715-8.915-8.508-9.461-1.25-6.255-6.818-10.994-13.492-10.994z" fill="#fff"/>
 </g>
</svg>
